X:183
T:John Joe's Jig
T:Gullane Jig, The
T:Port She\'ain tSeosaimh
R:jig
D:Mary Bergin: Feadoga Stain
Z:id:hn-jig-183
M:6/8
K:D
f2A AFA|BAF A2A|B/c/dB AFA|Bcd efg|~f3 ~A3|BAF ~A3|BdB AFA|Bdc d2e:|
~f3 efe|dBA d2e|f2a afe|faa b2a|~f3 efe|dBA d2e|fAA AFA|Bdc d2e:|

